packages/icons/svgs/solid/Source=c-question.svg

<svg xmlns="http://www.w3.org/2000/svg" width="12" height="12" viewBox="0 0 12 12"><g clip-path="url(#a)"><path d="M6 0C2.7 0 0 2.7 0 6s2.7 6 6 6 6-2.7 6-6-2.7-6-6-6Zm0 9.75c-.45 0-.75-.3-.75-.75s.3-.75.75-.75.75.3.75.75-.3.75-.75.75ZM7.125 6.3c-.375.225-.375.3-.375.45v.75h-1.5v-.75c0-.975.6-1.425 1.05-1.725.375-.225.45-.3.45-.525 0-.45-.3-.75-.75-.75-.3 0-.525.15-.675.375L4.95 4.8l-1.275-.75.375-.675A2.238 2.238 0 0 1 6 2.25c1.275 0 2.25.975 2.25 2.25 0 1.05-.675 1.5-1.125 1.8Z"/></g><defs><clipPath id="a"><path fill="#fff" d="M0 0h12v12H0z"/></clipPath></defs></svg>

<svg width="12" height="12" viewBox="0 0 12 12" fill="none" xmlns="http://www.w3.org/2000/svg">
<g clip-path="url(#clip0_821_685)">
<path d="M6 0C2.7 0 0 2.7 0 6C0 9.3 2.7 12 6 12C9.3 12 12 9.3 12 6C12 2.7 9.3 0 6 0ZM6 9.75C5.55 9.75 5.25 9.45 5.25 9C5.25 8.55 5.55 8.25 6 8.25C6.45 8.25 6.75 8.55 6.75 9C6.75 9.45 6.45 9.75 6 9.75ZM7.125 6.3C6.75 6.525 6.75 6.6 6.75 6.75V7.5H5.25V6.75C5.25 5.775 5.85 5.325 6.3 5.025C6.675 4.8 6.75 4.725 6.75 4.5C6.75 4.05 6.45 3.75 6 3.75C5.7 3.75 5.475 3.9 5.325 4.125L4.95 4.8L3.675 4.05L4.05 3.375C4.425 2.7 5.175 2.25 6 2.25C7.275 2.25 8.25 3.225 8.25 4.5C8.25 5.55 7.575 6 7.125 6.3Z" fill="black"/>
</g>
<defs>
<clipPath id="clip0_821_685">
<rect width="12" height="12" fill="white"/>
</clipPath>
</defs>
</svg>
